SVG-Logos/OCP & RH/Product Icons/Migration-Toolkit-Operator.svg

<svg xmlns="http://www.w3.org/2000/svg" width="38" height="38" viewBox="0 0 38 38"><defs><style>.a{fill:#e00;}</style></defs><path d="M28,2.25A7.7587,7.7587,0,0,1,35.75,10V28A7.7587,7.7587,0,0,1,28,35.75H10A7.7587,7.7587,0,0,1,2.25,28V10A7.7587,7.7587,0,0,1,10,2.25H28M28,1H10a9,9,0,0,0-9,9V28a9,9,0,0,0,9,9H28a9,9,0,0,0,9-9V10a9,9,0,0,0-9-9Z"/><path d="M27,15.9131H16.8178l.7789-.7783a.6256.6256,0,1,0-.8848-.8848l-1.8467,1.8467a.6259.6259,0,0,0,.001.8847l1.8467,1.8457a.6249.6249,0,1,0,.8828-.8847l-.78-.7793H26.375V26.375H17.1631V24.89a.625.625,0,0,0-1.25,0V27a.6256.6256,0,0,0,.625.625H27A.6256.6256,0,0,0,27.625,27V16.5381A.6256.6256,0,0,0,27,15.9131Z"/><path class="a" d="M23.1338,21.0186l-1.8467-1.8457a.6249.6249,0,1,0-.8828.8847l.78.7793H11.625V11.625h9.2119V13.11a.625.625,0,0,0,1.25,0V11a.6256.6256,0,0,0-.625-.625H11a.6256.6256,0,0,0-.625.625V21.4619a.6256.6256,0,0,0,.625.625H21.1822l-.7789.7783a.6256.6256,0,0,0,.8848.8848l1.8467-1.8467a.6259.6259,0,0,0-.001-.8847Z"/></svg>

<svg xmlns="http://www.w3.org/2000/svg" viewBox="0 0 38 38"><path d="M28 2.25A7.759 7.759 0 0 1 35.75 10v18A7.759 7.759 0 0 1 28 35.75H10A7.759 7.759 0 0 1 2.25 28V10A7.759 7.759 0 0 1 10 2.25h18M28 1H10a9 9 0 0 0-9 9v18a9 9 0 0 0 9 9h18a9 9 0 0 0 9-9V10a9 9 0 0 0-9-9Z"/><path d="M27 15.913H16.818l.779-.778a.626.626 0 1 0-.885-.885l-1.847 1.847a.626.626 0 0 0 .001.884l1.847 1.846a.625.625 0 1 0 .883-.885l-.78-.779h9.559v9.212h-9.212V24.89a.625.625 0 0 0-1.25 0V27a.626.626 0 0 0 .625.625H27a.626.626 0 0 0 .625-.625V16.538a.626.626 0 0 0-.625-.625Z"/><path d="m23.134 21.019-1.847-1.846a.625.625 0 1 0-.883.885l.78.779h-9.559v-9.212h9.212v1.485a.625.625 0 0 0 1.25 0V11a.626.626 0 0 0-.625-.625H11a.626.626 0 0 0-.625.625v10.462a.626.626 0 0 0 .625.625h10.182l-.779.778a.626.626 0 0 0 .885.885l1.847-1.847a.626.626 0 0 0-.001-.884Z" style="fill:#e00"/></svg>
